X:1
T:Title
%%score [ 1 2 3 4 ]
L:1/8
Q:1/4=120
M:4/4
K:C
V:1 treble-8 nm="Midi_1"
V:2 treble-8 nm="Midi_1"
V:3 bass nm="Midi_1"
V:4 bass nm="Midi_1"
V:1
"^Gebet um des heiligen Geistes Beistand" c2 | c3 c c2 e2 | e3 d !fermata!d2 d2 | c2 d2 e2 d2 | %4
w: 1.~O|heil'- ger Geist, o|heil'- ger Gott, du|Trö- ster wert in|
w: 2.~O|heil'- ger Geist, o|heil'- ger Gott, wirk'|in uns al- len|
w: 3.~O|heil'- ger Geist, o|heil'- ger Gott, mehr'|un- sern Glau- ben|
w: 4.~O|heil'- ger Geist, o|heil'- ger Gott, er-|leucht' uns durch dein|
w: 5.~O|heil'- ger Geist, o|heil'- ger Gott, du|zei- gest uns die|
w: 6.~O|heil'- ger Geist, o|heil'- ger Gott, ver-|laß uns nicht in|
 c2 B2"^Wilhelm Greef, 1851 (1809 -1875)""^Text: Bartholomäus Helder (ca. 1585 -1635)" !fermata!c2 c2 | %5
w: al- ler Not! Dich|
w: fort und fort! Ent-|
w: im- mer- fort! Wer|
w: gött- lich Wort! Mach|
w: Him- mels- pfort', auf|
w: Not und Tod! Wir|
 d2 d2 e2 e2 |[M:4/4][K:treble-8] f2 d2 !fermata!e2 e2 | g2 f2 e2 c2 | B2 c2 !fermata!d2 d2 | %9
w: ~hat ge- sandt vom|Him- mels- tron der|Va- ter und sein|ein'- ger Sohn: o|
w: zünd in uns der|Lie- be Kraft, die|Ein- tracht, Heil und|Frie- den schafft: *|
w: ~sich will Je- su|Chris- to nah'n, der|muß von dir die|Hülf' em- pfahn: *|
w: ~uns den Va- ter|recht be- kannt und|Je- sum, den er|uns ge- sandt! *|
w: ~daß wir käm- pfen|rit- ter- lich, zum|Him- mel drin- gen,|stark durch dich: *|
w: ~weihn uns dir zum|Ei- gen- tum und|brin- gen dir Lob,|Ehr' und Ruhm: *|
 f4 e4 | d4 z2 d2 | c4 B4 | !fermata!c4 z2 |] %13
w: heil'- ger|Geist, o|heil'- ger|Gott!|
w: ||||
w: ||||
w: ||||
w: ||||
w: ||||
V:2
 G2 | A3 A G2 c2 | c3 B !fermata!B2 B2 | A2 B2 c2 A2 | A2 ^G2 !fermata!A2 A2 | A2 B2 c2 c2 | %6
w: ||||||
[M:4/4][K:treble-8] c2 (BA) !fermata!B2 c2 | d2 d2 c2 G2 | G2 (GA) !fermata!B2 B2 | d4 c4 | %10
w: ||* * * * o|heil'- ger|
 A2 A2 A2 A2 | G4 G4 | !fermata!G4 z2 |] %13
w: Geist, o heil'- ger,|heil'- ger|Gott!|
V:3
 E,2 | F,3 F, G,2 G,2 | G,3 G, !fermata!G,2 G,2 | E,2 G,2 G,2 F,2 | E,2 E,2 !fermata!E,2 E,2 | %5
w: 1.~O|heil'- ger Geist, o|heil'- ger Gott, du|Trö- ster wert in|al- ler Not! Dich|
w: 2.~O|heil'- ger Geist, o|heil'- ger Gott, wirk'|in uns al- len|fort und fort! Ent-|
w: 3.~O|heil'- ger Geist, o|heil'- ger Gott, mehr'|un- sern Glau- ben|im- mer- fort! Wer|
w: 4.~O|heil'- ger Geist, o|heil'- ger Gott, er-|leucht' uns durch dein|gött- lich Wort! Mach|
w: 5.~O|heil'- ger Geist, o|heil'- ger Gott, du|zei- gest uns die|Him- mels- pfort', auf|
w: 6.~O|heil'- ger Geist, o|heil'- ger Gott, ver-|laß uns nicht in|Not und Tod! Wir|
 ^F,2 G,2 G,2 (A,_B,) |[M:4/4] A,2 A,2 !fermata!^G,2 A,2 | B,2 G,2 G,2 G,2 | %8
w: ~hat ge- sandt vom *|Him- mels- tron der|Va- ter und sein|
w: zünd in uns der *|Lie- be Kraft, die|Ein- tracht, Heil und|
w: ~sich will Je- su *|Chris- to nah'n, der|muß von dir die|
w: ~uns den Va- ter *|recht be- kannt und|Je- sum, den er|
w: ~daß wir käm- pfen *|rit- ter- lich, zum|Him- mel drin- gen,|
w: ~weihn uns dir zum *|Ei- gen- tum und|brin- gen dir Lob,|
 F,2 E,2 !fermata!G,2 G,2 | G,4 G,4 | A,2 F,2 F,2 F,2 | E,4 D,4 | !fermata!E,4 z2 |] %13
w: ein'- ger Sohn: o|heil'- ger|Geist, o heil'- ger,|heil'- ger|Gott!|
w: Frie- den schafft: *|||||
w: Hülf' em- pfahn: *|||||
w: uns ge- sandt! *|||||
w: stark durch dich: *|||||
w: Ehr' und Ruhm: *|||||
V:4
 C,2 | F,3 F, E,2 C,2 | G,3 G,, !fermata!G,,2 G,,2 | A,,2 G,,2 C,2 D,2 | %4
w: ||||
 E,2 E,2 !fermata!A,,2 A,,2 | D,2 G,,2 C,2 C,2 |[M:4/4] D,2 F,2 !fermata!E,2 A,,2 | %7
w: |||
 G,,2 B,,2 C,2 E,2 | %8
w: |
"^© 2010 by CPDL. This edition can be fully distributed, duplicated, performed, and recorded. Edited by Juliane Claudi" D,2 C,2 !fermata!G,,2 G,2 | %9
w: * * * o|
 B,,4 C,4 | F,4 z2 F,2 | G,4 G,,4 | !fermata!C,4 z2 |] %13
w: heil'- ger|Geist, o|heil'- ger|Gott!|

